src/pages/screens/Banner/images/Mobile.svg

<svg width="243" height="456" viewBox="0 0 243 456" fill="none" xmlns="http://www.w3.org/2000/svg">
<path d="M222.657 2.44214C232.598 2.44214 240.657 10.501 240.657 20.4421V435.197C240.657 445.138 232.598 453.197 222.657 453.197H20.6098C10.6687 453.197 2.60986 445.139 2.60986 435.197V20.4422C2.60986 10.501 10.6687 2.44214 20.6099 2.44214H78.2476H165.019H222.657Z" fill="#667EEA" stroke="#081758" stroke-width="4"/>
<path fill-rule="evenodd" clip-rule="evenodd" d="M79.2991 3.37598H19.5435C10.7069 3.37598 3.54346 10.5394 3.54346 19.376V436.263C3.54346 445.1 10.7069 452.263 19.5435 452.263H223.723C232.559 452.263 239.723 445.1 239.723 436.263V19.376C239.723 10.5394 232.559 3.37598 223.723 3.37598H163.967L157.551 10.0735C154.533 13.2238 150.36 15.0052 145.997 15.0052H97.2691C92.9065 15.0052 88.7331 13.2238 85.7152 10.0735L79.2991 3.37598Z" fill="#130936"/>
<path d="M212.388 191.88C223.434 191.88 232.388 200.834 232.388 211.88V306.106C232.388 317.152 223.434 326.106 212.388 326.106H32.3455C21.2998 326.106 12.3455 317.152 12.3455 306.106V211.88C12.3455 200.834 21.2998 191.88 32.3455 191.88H82.9252H161.809H212.388Z" fill="url(#paint0_linear_1_69)" fill-opacity="0.1"/>
<path d="M212.388 192.38C223.158 192.38 231.888 201.11 231.888 211.88V306.106C231.888 316.876 223.158 325.606 212.388 325.606H32.3455C21.5759 325.606 12.8455 316.876 12.8455 306.106V211.88C12.8455 201.11 21.5759 192.38 32.3455 192.38H82.9252H161.809H212.388Z" stroke="url(#paint1_linear_1_69)" stroke-opacity="0.1"/>
<path d="M199.186 205.082C210.231 205.082 219.186 214.036 219.186 225.082V289.236C219.186 300.281 210.231 309.236 199.186 309.236H44.8145C33.7688 309.236 24.8145 300.281 24.8145 289.236V225.082C24.8145 214.036 33.7688 205.082 44.8145 205.082H87.1599H156.84H199.186Z" fill="white" fill-opacity="0.1"/>
<path d="M212.388 334.173C223.434 334.173 232.388 343.127 232.388 354.173V423.461C232.388 434.507 223.434 443.461 212.388 443.461H32.3452C21.2995 443.461 12.3452 434.507 12.3452 423.461V354.173C12.3452 343.127 21.2995 334.173 32.3452 334.173H82.925H161.808H212.388Z" fill="url(#paint2_linear_1_69)" fill-opacity="0.1"/>
<path d="M212.388 334.673C223.158 334.673 231.888 343.404 231.888 354.173V423.461C231.888 434.231 223.158 442.961 212.388 442.961H32.3452C21.5757 442.961 12.8452 434.231 12.8452 423.461V354.173C12.8452 343.404 21.5757 334.673 32.3452 334.673H82.925H161.808H212.388Z" stroke="url(#paint3_linear_1_69)" stroke-opacity="0.1"/>
<path d="M99.3739 345.175C110.42 345.175 119.374 354.129 119.374 365.175V409.525C119.374 420.571 110.42 429.525 99.3739 429.525H44.815C33.7693 429.525 24.8149 420.571 24.8149 409.525V365.175C24.8149 354.129 33.7693 345.175 44.8149 345.175H55.1452H89.0437H99.3739Z" fill="white" fill-opacity="0.1"/>
<path d="M199.186 345.175C210.232 345.175 219.186 354.129 219.186 365.175V409.525C219.186 420.571 210.232 429.525 199.186 429.525H144.627C133.581 429.525 124.627 420.571 124.627 409.525V365.175C124.627 354.129 133.581 345.175 144.627 345.175H154.957H188.856H199.186Z" fill="white" fill-opacity="0.1"/>
<path d="M212.388 25.3804C223.434 25.3804 232.388 34.3347 232.388 45.3804V163.078C232.388 174.123 223.434 183.078 212.388 183.078H32.3452C21.2995 183.078 12.3452 174.123 12.3452 163.078V45.3804C12.3452 34.3347 21.2995 25.3804 32.3452 25.3804H82.925H161.808H212.388Z" fill="url(#paint4_linear_1_69)" fill-opacity="0.1"/>
<path d="M212.388 25.8804C223.158 25.8804 231.888 34.6108 231.888 45.3804V163.078C231.888 173.847 223.158 182.578 212.388 182.578H32.3452C21.5757 182.578 12.8452 173.847 12.8452 163.078V45.3804C12.8452 34.6108 21.5757 25.8804 32.3452 25.8804H82.925H161.808H212.388Z" stroke="url(#paint5_linear_1_69)" stroke-opacity="0.1"/>
<g clip-path="url(#clip0_1_69)">
<path d="M66.0588 55.7854C62.5017 55.7854 59.7226 57.0922 57.7217 59.7057C55.7208 62.3192 54.7204 65.6601 54.7204 69.7283C54.6956 74.7828 56.326 78.7894 59.6115 81.7481C60.0314 82.1426 60.1796 82.648 60.0561 83.2644L59.2039 85.0396C58.9321 85.6314 58.5307 86.0937 57.9996 86.4265C57.4685 86.7594 56.3507 87.234 54.6462 87.8504C54.5721 87.8751 53.0097 88.3805 49.9589 89.3667C46.9082 90.353 45.284 90.8954 45.0863 90.994C43.0113 91.857 41.6527 92.7569 41.0104 93.6939C40.3187 95.2472 39.9729 99.1798 39.9729 105.492H92.1448C92.1448 99.1798 91.799 95.2472 91.1073 93.6939C90.465 92.7569 89.1064 91.857 87.0313 90.994C86.8337 90.8954 85.2095 90.353 82.1588 89.3667C79.108 88.3805 77.5456 87.8751 77.4714 87.8504C75.767 87.234 74.6492 86.7594 74.1181 86.4265C73.587 86.0937 73.1855 85.6314 72.9138 85.0396L72.0616 83.2644C71.9381 82.648 72.0863 82.1426 72.5062 81.7481C75.7917 78.7894 77.422 74.7828 77.3973 69.7283C77.3973 65.6601 76.3969 62.3192 74.396 59.7057C72.3951 57.0922 69.616 55.7854 66.0588 55.7854Z" fill="white" fill-opacity="0.3"/>
</g>
<rect x="112.56" y="71.4666" width="90.7337" height="9.07337" rx="4.53669" fill="white" fill-opacity="0.3"/>
<rect x="112.56" y="87.3447" width="31.7568" height="2.26834" rx="1.13417" fill="white" fill-opacity="0.3"/>
<rect x="39.9729" y="119.102" width="163.321" height="4.53669" rx="2.26834" fill="white" fill-opacity="0.3"/>
<rect x="39.9729" y="130.444" width="163.321" height="4.53669" rx="2.26834" fill="white" fill-opacity="0.3"/>
<rect x="39.9729" y="141.786" width="163.321" height="4.53669" rx="2.26834" fill="white" fill-opacity="0.3"/>
<defs>
<linearGradient id="paint0_linear_1_69" x1="122.367" y1="191.88" x2="122.367" y2="326.106" gradientUnits="userSpaceOnUse">
<stop stop-color="white"/>
<stop offset="1" stop-opacity="0.8"/>
</linearGradient>
<linearGradient id="paint1_linear_1_69" x1="225.366" y1="326.106" x2="139.207" y2="181.824" gradientUnits="userSpaceOnUse">
<stop stop-color="white"/>
<stop offset="1" stop-color="white" stop-opacity="0"/>
</linearGradient>
<linearGradient id="paint2_linear_1_69" x1="122.367" y1="334.173" x2="122.367" y2="443.461" gradientUnits="userSpaceOnUse">
<stop stop-color="white"/>
<stop offset="1" stop-opacity="0.8"/>
</linearGradient>
<linearGradient id="paint3_linear_1_69" x1="225.365" y1="443.461" x2="162.696" y2="314.565" gradientUnits="userSpaceOnUse">
<stop stop-color="white"/>
<stop offset="1" stop-color="white" stop-opacity="0"/>
</linearGradient>
<linearGradient id="paint4_linear_1_69" x1="122.367" y1="25.3804" x2="122.367" y2="183.078" gradientUnits="userSpaceOnUse">
<stop stop-color="white" stop-opacity="0.8"/>
<stop offset="1"/>
</linearGradient>
<linearGradient id="paint5_linear_1_69" x1="225.365" y1="183.078" x2="117.249" y2="28.9709" gradientUnits="userSpaceOnUse">
<stop stop-color="white"/>
<stop offset="1" stop-color="white" stop-opacity="0"/>
</linearGradient>
<clipPath id="clip0_1_69">
<rect x="39.9729" y="51.0515" width="52.1719" height="54.4402" rx="2" fill="white"/>
</clipPath>
</defs>
</svg>

<svg width="243" height="456" fill="none" xmlns="http://www.w3.org/2000/svg"><path d="M222.657 2.442c9.941 0 18 8.059 18 18v414.755c0 9.941-8.059 18-18 18H20.61c-9.941 0-18-8.058-18-18V20.442c0-9.941 8.059-18 18-18h202.047z" fill="#667EEA" stroke="#081758" stroke-width="4"/><path fill-rule="evenodd" clip-rule="evenodd" d="M79.3 3.376H19.543c-8.837 0-16 7.163-16 16v416.887c0 8.837 7.163 16 16 16h204.179c8.836 0 16-7.163 16-16V19.376c0-8.837-7.164-16-16-16h-59.756l-6.416 6.697a16 16 0 0 1-11.554 4.932H97.269a16 16 0 0 1-11.554-4.932L79.3 3.376z" fill="#130936"/><path d="M212.388 191.88c11.046 0 20 8.954 20 20v94.226c0 11.046-8.954 20-20 20H32.345c-11.045 0-20-8.954-20-20V211.88c0-11.046 8.955-20 20-20h180.043z" fill="url(#a)" fill-opacity=".1"/><path d="M212.388 192.38c10.77 0 19.5 8.73 19.5 19.5v94.226c0 10.77-8.73 19.5-19.5 19.5H32.345c-10.77 0-19.5-8.73-19.5-19.5V211.88c0-10.77 8.73-19.5 19.5-19.5h180.043z" stroke="url(#b)" stroke-opacity=".1"/><path d="M199.186 205.082c11.045 0 20 8.954 20 20v64.154c0 11.045-8.955 20-20 20H44.815c-11.046 0-20-8.955-20-20v-64.154c0-11.046 8.954-20 20-20h154.371z" fill="#fff" fill-opacity=".1"/><path d="M212.388 334.173c11.046 0 20 8.954 20 20v69.288c0 11.046-8.954 20-20 20H32.345c-11.046 0-20-8.954-20-20v-69.288c0-11.046 8.954-20 20-20h180.043z" fill="url(#c)" fill-opacity=".1"/><path d="M212.388 334.673c10.77 0 19.5 8.731 19.5 19.5v69.288c0 10.77-8.73 19.5-19.5 19.5H32.345c-10.77 0-19.5-8.73-19.5-19.5v-69.288c0-10.769 8.73-19.5 19.5-19.5h180.043z" stroke="url(#d)" stroke-opacity=".1"/><path d="M99.374 345.175c11.046 0 20 8.954 20 20v44.35c0 11.046-8.954 20-20 20H44.815c-11.046 0-20-8.954-20-20v-44.35c0-11.046 8.954-20 20-20h54.559zM199.186 345.175c11.046 0 20 8.954 20 20v44.35c0 11.046-8.954 20-20 20h-54.559c-11.046 0-20-8.954-20-20v-44.35c0-11.046 8.954-20 20-20h54.559z" fill="#fff" fill-opacity=".1"/><path d="M212.388 25.38c11.046 0 20 8.955 20 20v117.698c0 11.045-8.954 20-20 20H32.345c-11.046 0-20-8.955-20-20V45.38c0-11.045 8.954-20 20-20h180.043z" fill="url(#e)" fill-opacity=".1"/><path d="M212.388 25.88c10.77 0 19.5 8.73 19.5 19.5v117.698c0 10.769-8.73 19.5-19.5 19.5H32.345c-10.77 0-19.5-8.731-19.5-19.5V45.38c0-10.77 8.73-19.5 19.5-19.5h180.043z" stroke="url(#f)" stroke-opacity=".1"/><g clip-path="url(#g)"><path d="M66.059 55.785c-3.557 0-6.336 1.307-8.337 3.92-2.001 2.614-3.002 5.955-3.002 10.023-.024 5.055 1.606 9.061 4.892 12.02.42.395.568.9.444 1.516l-.852 1.776A3.144 3.144 0 0 1 58 86.426c-.532.333-1.65.808-3.354 1.424l-4.687 1.517c-3.05.986-4.675 1.528-4.873 1.627-2.075.863-3.433 1.763-4.076 2.7-.691 1.553-1.037 5.486-1.037 11.798h52.172c0-6.312-.346-10.245-1.038-11.798-.642-.937-2-1.837-4.076-2.7-.197-.099-1.822-.641-4.872-1.627a4753.45 4753.45 0 0 1-4.688-1.517c-1.704-.616-2.822-1.09-3.353-1.423a3.144 3.144 0 0 1-1.204-1.387l-.852-1.776c-.124-.616.024-1.121.444-1.516 3.286-2.959 4.916-6.965 4.891-12.02 0-4.068-1-7.409-3.001-10.022-2-2.614-4.78-3.92-8.337-3.92z" fill="#fff" fill-opacity=".3"/></g><rect x="112.56" y="71.467" width="90.734" height="9.073" rx="4.537" fill="#fff" fill-opacity=".3"/><rect x="112.56" y="87.345" width="31.757" height="2.268" rx="1.134" fill="#fff" fill-opacity=".3"/><rect x="39.973" y="119.102" width="163.321" height="4.537" rx="2.268" fill="#fff" fill-opacity=".3"/><rect x="39.973" y="130.444" width="163.321" height="4.537" rx="2.268" fill="#fff" fill-opacity=".3"/><rect x="39.973" y="141.786" width="163.321" height="4.537" rx="2.268" fill="#fff" fill-opacity=".3"/><defs><linearGradient id="a" x1="122.367" y1="191.88" x2="122.367" y2="326.106" gradientUnits="userSpaceOnUse"><stop stop-color="#fff"/><stop offset="1" stop-opacity=".8"/></linearGradient><linearGradient id="b" x1="225.366" y1="326.106" x2="139.207" y2="181.824" gradientUnits="userSpaceOnUse"><stop stop-color="#fff"/><stop offset="1" stop-color="#fff" stop-opacity="0"/></linearGradient><linearGradient id="c" x1="122.367" y1="334.173" x2="122.367" y2="443.461" gradientUnits="userSpaceOnUse"><stop stop-color="#fff"/><stop offset="1" stop-opacity=".8"/></linearGradient><linearGradient id="d" x1="225.365" y1="443.461" x2="162.696" y2="314.565" gradientUnits="userSpaceOnUse"><stop stop-color="#fff"/><stop offset="1" stop-color="#fff" stop-opacity="0"/></linearGradient><linearGradient id="e" x1="122.367" y1="25.38" x2="122.367" y2="183.078" gradientUnits="userSpaceOnUse"><stop stop-color="#fff" stop-opacity=".8"/><stop offset="1"/></linearGradient><linearGradient id="f" x1="225.365" y1="183.078" x2="117.249" y2="28.971" gradientUnits="userSpaceOnUse"><stop stop-color="#fff"/><stop offset="1" stop-color="#fff" stop-opacity="0"/></linearGradient><clipPath id="g"><rect x="39.973" y="51.051" width="52.172" height="54.44" rx="2" fill="#fff"/></clipPath></defs></svg>
